X:1
T:Title
%%score ( 1 2 ) { ( 3 5 ) | ( 4 6 ) }
L:1/8
M:4/4
K:A
V:1 treble nm="Akkordion"
V:2 treble 
V:3 treble nm="Grand Piano"
V:5 treble 
V:4 bass 
V:6 bass 
V:1
 z8[Q:1/4=100] | z8 | z8 | z8 |[M:9/8] z9 |[M:4/4] z8 | z8 | z8 | z8 | z8 | z8 | z8 |[M:7/8] z7 | %13
[M:1/4][Q:1/4=84] [Ec]2 |[M:4/4] [Ec]2 [Ec][Ec] BA[EG][DF] | C4- [CA]2 [=Gc]2 | %16
 [Fd]4 [DF]2 [FA][^EB] | [Ec]4 z4 | [Ge]2 [GB][=Gc] [Fd]4 | [Fd]2 [FA][^EB] c2- [Ac]2 | %20
 [GB]2 [Ge][Ge] [Ge]2 ^d-[Ad] |[M:11/16] [Ge]/-[Ge]/-[Ge]/-[Ge]/-[Ge]/-[Ge]/-[Ge]/-[Ge]-<[Ge] | %22
[M:3/8][Q:1/4=100] z3 |[M:4/4] z8 | z8 | z8 | z8 | z8 | %28
 z8[Q:1/4=97][Q:1/4=94][Q:1/4=91][Q:1/4=88][Q:1/4=84][Q:1/4=81][Q:1/4=78] | z8 |[M:3/4] z6 | %31
[M:1/4][Q:1/4=100] z2 |[M:4/4] z8 | z8 | z8 |[M:9/8] z9 |[M:4/4] z8 | z8 | z8 | z8 | z8 | z8 | z8 | %43
[M:15/8] z15 |] %44
V:2
 x8 | x8 | x8 | x8 |[M:9/8] x9 |[M:4/4] x8 | x8 | x8 | x8 | x8 | x8 | x8 |[M:7/8] x7 |[M:1/4] x2 | %14
[M:4/4] z4 F2 z2 | E4 z4 | x8 | x8 | x8 | z4 =E2 z2 | z4 z2 .F2 |[M:11/16] x11/2 |[M:3/8] x3 | %23
[M:4/4] x8 | x8 | x8 | x8 | x8 | x8 | x8 |[M:3/4] x6 |[M:1/4] x2 |[M:4/4] x8 | x8 | x8 | %35
[M:9/8] x9 |[M:4/4] x8 | x8 | x8 | x8 | x8 | x8 | x8 |[M:15/8] x15 |] %44
V:3
 z4 z2 F2 | F2 F>F =G>F ^E>F | A6 z2 | [Fd]2 [Fc]>[FB] A>G F>G |[M:9/8] A6- A .A2 |[M:4/4] d6 z2 | %6
 [FA]4 [DF]2 z2 | =G6 z2 | [=GB]4 z4 | B2 B>B [=Gc]2 [Gc]2 | [Ad]2 [A^d]2 e2 (3=dcB | %11
 [DFA]4- [DFA]>[DFB] [DFc]>[DFd] |[M:7/8] [=Ge]- [Ge]3 z z2 |[M:1/4] c2 |[M:4/4] z4 .B2 z2 | %15
 C4- [CA]2 [=Gc]2 | [Fd]4 [DF]2 [FA][FB] | [Ec]6 z2 | [Ge]2 [GB][=Gc] [Fd]4 | z4 c4 | z4 z2 ^d2 | %21
[M:11/16] [Ge]/-[Ge]/-[Ge]/-[Ge]/-[Ge]/-[Ge]/-[Ge]/-[Ge]-<[Ge] |[M:3/8] EEE |[M:4/4] [EA]4 B3 B | %24
 c2 [CEA]2 z [CEA][CEA][CEA] | [DAd]4 [A^d]3 [Ad] | [Ge]2 E2[K:bass] E,F,E,D, | [Ee]2 d>d c3 c | %28
 f2 e>e d[Fd][Ec][EB] | [Ee]2 [Fd][DFB] [CEA]2 [DG]2 |[M:3/4] [A,CA]6 |[M:1/4] F2 | %32
[M:4/4] F2 F>F =G>F ^E>F | A6 z2 | [Fd]2 [Fc]>[FB] A>G F>G |[M:9/8] A6- A .A2 |[M:4/4] d6 z2 | %37
 [FA]4 [DF]2 z2 | =G6 z2 | [=GB]4 z4 | B2 B>B [=Gc]2 [Gc]2 | [Ad]2 [A^d]2 e2 (3=dcB | %42
 [DFA]4- [DFA]>[DFB] [DFc]>[DFd] |[M:15/8] .[=Ge]6 z3 z6 |] %44
V:4
 z4 z2 [D,A,D]2 | [D,A,D]2 [D,A,D]>[D,A,D] [D,B,D]>[D,A,D] [D,G,D]>[D,A,D] | %2
 [D,F,D]2 [A,,E,]>[A,,=G,] [D,F,]2 [D,A,]2 | [B,,B,]2 [C,^A,]>[D,B,] [E,CE]>[E,B,E] [E,G,D]>[E,D] | %4
[M:9/8] E,2 F,- F,/F,/ =G,2- G, z/[K:treble] G=G/ |[M:4/4] F6[K:bass] z2 | %6
 [D,D]>D, D,>D, D,>D, (3DCD | E6 z2 | [D,A,]>D, D,>D, [D,D]>[D,D] [D,D]2 | %9
 [=G,D=G]2 [G,DG]>[G,DG][K:bass] [E,A,]2 [E,A,]2 | %10
 [F,D]2 [F,B,]2[K:treble] [=G,B,=G]2 (3[^G,B,^E][G,CE][G,DE] | A,2[K:bass] F,>D, A,,>A,, A,,>A,, | %12
[M:7/8] z2 C2 [D,A,]3 |[M:1/4] E2 |[M:4/4] E2 z2 D,4 | z E,A,E, z C,E,A, | z A,DA, z A,DA, | %17
 z E,C,E, A,,[K:treble]EAc | E,B,EA, D,F,A,D | D,A,DA, A,,C,E,A, | B,,B,G,E, z B, z B, | %21
[M:11/16] E,B,G,B,E,3/2 |[M:3/8] [E,G,][E,G,][D,G,] |[M:4/4] [C,A,]4 [E,G,E]3 [E,G,E] | %24
 [A,E]2 A,,2 z A,A,G, | F,4 [F,B,]3 [F,B,] | [E,B,]2 [E,G,]2 z4 | %27
 [C,A,]2 [E,G,E]>[E,G,E] [A,E]3 [=G,A,E] | %28
 [F,^A,F]2 [F,CF]>[F,CF] [B,F][K:bass][B,,A,][E,G,][D,G,] | [C,A,]2 [D,A,]D, z2 B,2 |[M:3/4] A,,6 | %31
[M:1/4] [D,A,D]2 |[M:4/4] [D,A,D]2 [D,A,D]>[D,A,D] [D,B,D]>[D,A,D] [D,G,D]>[D,A,D] | %33
 [D,F,D]2 [A,,E,]>[A,,=G,] [D,F,]2 [D,A,]2 | [B,,B,]2 [C,^A,]>[D,B,] [E,CE]>[E,B,E] [E,G,D]>[E,D] | %35
[M:9/8] A,,2- [A,,F,]- [A,,-F,]/[A,,-F,]/ [A,,=G,]2- [A,,G,] z/[K:treble] G=G/ | %36
[M:4/4] F6[K:bass] z2 | [D,D]>D, D,>D, D,>D, (3DCD | E6 z2 | [D,A,]>D, D,>D, [D,D]>[D,D] [D,D]2 | %40
 [=G,D=G]2 [G,DG]>[G,DG][K:bass] [E,A,]2 [E,A,]2 | %41
 [F,D]2 [F,B,]2[K:treble] [=G,B,=G]2 (3[^G,B,^E][G,CE][G,DE] | A,2[K:bass] F,>D, A,,>A,, A,,>A,, | %43
[M:15/8] z2 C-C [D,A,]2- [D,A,] z2 z6 |] %44
V:5
 x8 | x8 | z2 C>E D2 [FA]2 | x8 |[M:9/8] C2 D- D/D/ E2- E z/ Bc/ | %5
[M:4/4] z2 (3A,A,A, A,>c [FB]>[Fd] | z z/ D/ D>D A,>A, (3FEF | z2 (3A,A,A, A,>A [Ac]>[=GB] | %8
 z z/ A,/ B,>C [FA]2 [FA]2 | x8 | x8 | x8 |[M:7/8] D2 z2 [Fd]3 |[M:1/4] x2 | %14
[M:4/4] c2 [Ec][Ec] F-[FA][EG][DF] | E4 z4 | x8 | z4 .A,2 z2 | x8 | [Fd]2 [FA][^EB] =E2 A2 | %20
 [GB]2 [Ge][Ge] [Ge]2 FA |[M:11/16] x11/2 |[M:3/8] x3 |[M:4/4] x8 | x8 | x8 | x4[K:bass] x4 | x8 | %28
 x8 | x8 |[M:3/4] x6 |[M:1/4] x2 |[M:4/4] x8 | z2 C>E D2 [FA]2 | x8 | %35
[M:9/8] C2 D- D/D/ E2- E z/ Bc/ |[M:4/4] z2 (3A,A,A, A,>c [FB]>[Fd] | z z/ D/ D>D A,>A, (3FEF | %38
 z2 (3A,A,A, A,>A [Ac]>[=GB] | z z/ A,/ B,>C [FA]2 [FA]2 | x8 | x8 | x8 | %43
[M:15/8] .D3 z [Fd]2- [Fd] z2 z6 |] %44
V:6
 x8 | x8 | x8 | x8 |[M:9/8] A,,6- A,, z[K:treble] z | %5
[M:4/4] z2[K:bass] (3D,D,D, D,>F [D,A,]>[D,A,] | x8 | z2 (3A,,A,,A,, A,,>F [A,,A,]>[A,,A,] | x8 | %9
 x4[K:bass] x4 | x4[K:treble] x4 | x2[K:bass] x6 |[M:7/8] A,,- A,,3 z z2 |[M:1/4] x2 | %14
[M:4/4] z E,A,E, z F,G,A, | A,,4 A,,4 | D,4 D,4 | A,,4 z4[K:treble] | x8 | x8 | z4 B,,2 B,,2 | %21
[M:11/16] x11/2 |[M:3/8] x3 |[M:4/4] x8 | x8 | x8 | x8 | x8 | x5[K:bass] x3 | z4 E,4 |[M:3/4] x6 | %31
[M:1/4] x2 |[M:4/4] x8 | x8 | x8 |[M:9/8] .E,3 z3 z3[K:treble] | %36
[M:4/4] z2[K:bass] (3D,D,D, D,>F [D,A,]>[D,A,] | x8 | z2 (3A,,A,,A,, A,,>F [A,,A,]>[A,,A,] | x8 | %40
 x4[K:bass] x4 | x4[K:treble] x4 | x2[K:bass] x6 |[M:15/8] .A,,6 z3 z6 |] %44

